X: 24080
T: Long Island
R: jig
M: 6/8
K: Dmixolydian
AFD dAF|BGG GFG|AFD dAF|GEE EFG|
AFD dAF|BGG GAG|FAF GEA|DED D2F:|
|:AFA dAF|BGB dBG|AFA dAF|GEE EFG|
AFA dAF|BGD dBG|FAF GEA|DED D2F:|
|:Add Fdd|BdG dBd|Add Fdd|GdE dGd|
Add Fdd|Bdd Gdd|FAF GEA|DED D2F:|

